X: 1
N: Cerebral Vortex
N: 8 x 32R 3C (Ken Way / Nutmeg Colln.)
N: also used for "Anderson's Rant" (MMM)
P: Elliot Anderson
C: by Muriel Johnstone / A Dancer's Miscellany IV
C: Arr. T. Traub 11-17-2003
R: reel
M: 4/4
L: 1/8
K: D
A,2|: "D"D2 FD d2 cd|"A"Agfe "D"d2 cd|"Em"eEEF GFGA|"G"BdcB "A"AGFE|"D"D2 FD d2 cd|
"A"Agfe "D"d2 cd|"Em"eEEF G^AB^d|"G"e^def "A"g2 fe||"D"fddc d3 e|"D"fddc d2 ef|"Em"g2 EF G^AB^d|
"G"e^def "A"g2 fe|"D"fddc d3 e|"D"fddc d2 ef|1"Em"g2 EF G^AB^d|"E"edcB "A"AGFE:|2 "Em"g2 EF GABd|"A"cABc "D"d2|]
